material/.icons/material/car-convertible.svg

<svg xmlns="http://www.w3.org/2000/svg" viewBox="0 0 24 24"><path d="M16 6l-1 .75L17.5 10h-4V8.5H12V10H3c-1.11 0-2 .89-2 2v3h2a3 3 0 003 3 3 3 0 003-3h6a3 3 0 003 3 3 3 0 003-3h2v-3c0-1.11-.89-2-2-2h-2l-3-4M6 13.5A1.5 1.5 0 017.5 15 1.5 1.5 0 016 16.5 1.5 1.5 0 014.5 15 1.5 1.5 0 016 13.5m12 0a1.5 1.5 0 011.5 1.5 1.5 1.5 0 01-1.5 1.5 1.5 1.5 0 01-1.5-1.5 1.5 1.5 0 011.5-1.5z"/></svg>

<?xml version="1.0" encoding="UTF-8"?><!DOCTYPE svg PUBLIC "-//W3C//DTD SVG 1.1//EN" "http://www.w3.org/Graphics/SVG/1.1/DTD/svg11.dtd"><svg xmlns="http://www.w3.org/2000/svg" xmlns:xlink="http://www.w3.org/1999/xlink" version="1.1" id="mdi-car-convertible" width="24" height="24" viewBox="0 0 24 24"><path d="M16,6L15,6.75L17.5,10H13.5V8.5H12V10H3C1.89,10 1,10.89 1,12V15H3A3,3 0 0,0 6,18A3,3 0 0,0 9,15H15A3,3 0 0,0 18,18A3,3 0 0,0 21,15H23V12C23,10.89 22.11,10 21,10H19L16,6M6,13.5A1.5,1.5 0 0,1 7.5,15A1.5,1.5 0 0,1 6,16.5A1.5,1.5 0 0,1 4.5,15A1.5,1.5 0 0,1 6,13.5M18,13.5A1.5,1.5 0 0,1 19.5,15A1.5,1.5 0 0,1 18,16.5A1.5,1.5 0 0,1 16.5,15A1.5,1.5 0 0,1 18,13.5Z" /></svg>
